source/assets/img/quote-hpe.svg

<?xml version="1.0" encoding="UTF-8"?>
<svg width="141px" height="59px" viewBox="0 0 141 59" version="1.1" xmlns="http://www.w3.org/2000/svg" xmlns:xlink="http://www.w3.org/1999/xlink">
    <defs></defs>
    <g id="Page-1" stroke="none" stroke-width="1" fill="none" fill-rule="evenodd">
        <g id="Sponsor-Page" transform="translate(-200.000000, -2727.000000)" fill-rule="nonzero" fill="#3A3A62">
            <g id="Hewlett_Packard_Enterprise_logo" transform="translate(200.000000, 2727.000000)">
                <path d="M45.0360411,10.7846574 L3.00277425,10.7846574 L3.00277425,2.99958711 L45.0360411,2.99958711 L45.0360411,10.7846574 L45.0360411,10.7846574 Z M48.0388153,0 L0,0 L0,13.7827122 L48.0388256,13.7827122 L48.0388256,0 L48.0388153,0 Z" id="path3346"></path>
                <polyline id="path3350" points="3.00277425 36.5624798 0 36.5624798 0 22.7797676 3.00277425 22.7797676 3.00277425 28.226289 8.36782906 28.226289 8.36782906 22.7797471 11.3706033 22.7797471 11.3706033 36.5624798 8.36782906 36.5624798 8.36782906 30.8506646 3.00277425 30.8506646 3.00277425 36.5624798"></polyline>
                <path d="M15.918088,30.5197676 L19.4947707,30.5197676 C19.4281549,29.5061451 19.0093902,28.7996586 17.8387306,28.7996586 C16.9554955,28.7996586 16.18267,29.1752787 15.918088,30.5198289 L15.918088,30.5197676 Z M18.1918201,36.7830812 C15.1452624,36.7830812 13.0704269,34.864242 13.0704269,31.7121391 C13.0704269,28.6456207 15.101479,26.5290012 17.7949471,26.5290012 C20.7311056,26.5290012 22.1882389,28.4915828 22.1882389,31.4249843 L22.1882389,32.5279813 L15.918088,32.5279813 C16.2721387,34.04841 17.4637289,34.4449001 18.6562803,34.4449001 C19.6936878,34.4449001 20.4436707,34.2252691 21.370679,33.6509596 L21.4820292,33.6509596 L21.4820292,35.9225569 C20.6873221,36.4968663 19.5604459,36.7830812 18.1918303,36.7830812 L18.1918201,36.7830812 Z" id="path3354"></path>
                <polyline id="path3358" points="30.0249817 30.7850512 28.4793306 36.5624696 25.8524885 36.5624696 22.8497143 26.8589482 22.8497143 26.7486526 25.7201975 26.7486526 27.3534053 32.5489024 28.8991178 26.7486526 31.2394146 26.7486526 32.8070086 32.5489024 34.4630487 26.7486526 37.2231839 26.7486526 37.2231839 26.8589482 34.2204096 36.5624798 31.5925859 36.5624798 30.0250942 30.7850614"></polyline>
                <path d="M42.1008336,36.7830812 C39.716692,36.7830812 38.7449494,35.8350722 38.7449494,33.6081571 L38.7449494,22.7807074 L41.6591752,22.7807074 L41.6591752,33.4094166 C41.6591752,34.0930921 41.9236958,34.3355647 42.4976248,34.3355647 C42.6965009,34.3355647 42.9839255,34.2698797 43.1599999,34.2033775 L43.2046832,34.2033775 L43.2046832,36.6071619 C42.9619418,36.6946057 42.5422262,36.783071 42.1006087,36.783071" id="path3362"></path>
                <path d="M46.870078,30.5197676 L50.4467607,30.5197676 C50.380196,29.5061451 49.9613802,28.7996586 48.7907206,28.7996586 C47.908508,28.7996586 47.1346804,29.1752787 46.8701598,30.5198289 L46.870078,30.5197676 Z M49.1438101,36.7830812 C46.0972524,36.7830812 44.0224169,34.864242 44.0224169,31.7121391 C44.0224169,28.6456207 46.053469,26.5290012 48.7469269,26.5290012 C51.6830955,26.5290012 53.1402289,28.4915828 53.1402289,31.4249843 L53.1402289,32.5279813 L46.8701598,32.5279813 C47.2233311,34.04841 48.4158722,34.4449001 49.6073909,34.4449001 C50.6458414,34.4449001 51.3957425,34.2252691 52.323763,33.6509596 L52.434193,33.6509596 L52.434193,35.9225569 C51.6395064,36.4968663 50.51353,36.7830812 49.1439941,36.7830812 L49.1438101,36.7830812 Z" id="path3366"></path>
                <path d="M65.1056815,26.7486526 L67.2690143,26.7486526 L67.2690143,29.0858633 L65.1056815,29.0858633 L65.1056815,33.0775797 C65.1056815,33.9381041 65.4368895,34.3355647 66.3201041,34.3355647 C66.5628148,34.3355647 66.8721312,34.3126822 67.2033392,34.202356 L67.2690143,34.202356 L67.2690143,36.4958141 C66.8940229,36.6289207 66.3201144,36.7820495 65.4816239,36.7820495 C63.1184231,36.7820495 62.1914046,35.7018737 62.1914046,33.2096239 L62.1914046,29.0857714 L58.4605289,29.0857714 L58.4605289,33.0774469 C58.4605289,33.9379918 58.7917472,34.3354319 59.6740313,34.3354319 C59.9176725,34.3354319 60.226999,34.3126107 60.5581866,34.2023253 L60.623872,34.2023253 L60.623872,36.4957835 C60.2488805,36.6289105 59.6740211,36.7820188 58.8364713,36.7820188 C56.4732705,36.7820188 55.5462724,35.701843 55.5462724,33.2096137 L55.5462724,29.0857612 L54.0444252,29.0857612 L54.0444252,26.7485811 L55.5462724,26.7485811 L55.5462724,24.0586634 L58.4606005,24.0586634 L58.4606005,26.7486526 L62.1914966,26.7486526 L62.1914966,24.0586839 L65.1058246,24.0586839 L65.1058246,26.748673" id="path3370"></path>
                <path d="M77.088261,29.5498874 C78.6129713,29.5498874 79.3401116,28.6903028 79.3401116,27.4551391 C79.3401116,26.1752829 78.6129713,25.3157086 77.088261,25.3157086 L75.1894999,25.3157086 L75.1894999,29.5498874 L77.0882814,29.5498874 L77.088261,29.5498874 Z M82.3876304,27.4551391 C82.3876304,30.4550939 80.3784701,32.0858284 77.3309615,32.0858284 L75.1894999,32.0858284 L75.1894999,36.5624185 L72.1886275,36.5624185 L72.1886275,22.7797165 L77.3309615,22.7797165 C80.3784701,22.7797165 82.3876304,24.4113908 82.3876304,27.4550982 L82.3876304,27.4551391 Z" id="path3374"></path>
                <path d="M88.7891214,33.4750301 L88.7891214,32.6373269 C88.3475039,32.3958145 87.7745565,32.3073697 87.1778054,32.3073697 C86.2289258,32.3073697 85.6549969,32.6591878 85.6549969,33.4531691 C85.6549969,34.2699512 86.2289258,34.6227296 87.0893591,34.6227296 C87.9060295,34.6227296 88.5246417,34.2033877 88.7892645,33.4750301 L88.7891214,33.4750301 Z M88.8776392,35.5925996 C88.2371046,36.3646996 87.2891555,36.7393389 86.2717379,36.7393389 C84.3520462,36.7393389 82.7835525,35.5716887 82.7835525,33.4969115 C82.7835525,31.5790223 84.3520462,30.300106 86.6029459,30.300106 C87.3091454,30.300106 88.0391487,30.4104118 88.7891214,30.6300632 L88.7891214,30.4551041 C88.7891214,29.3958495 88.1933109,28.9337255 86.6267395,28.9337255 C85.6321542,28.9337255 84.6832543,29.2189903 83.8657046,29.6830042 L83.7561949,29.6830042 L83.7561949,27.3448434 C84.5061982,26.9045906 85.8319711,26.5290012 87.1329994,26.5290012 C90.0920107,26.5290012 91.7032654,27.940074 91.7032654,30.4104118 L91.7032654,36.5624798 L88.8775881,36.5624798 L88.8775881,35.5925996 L88.8776392,35.5925996 Z" id="path3378"></path>
                <path d="M93.1824234,31.6674467 C93.1824234,28.5134437 95.4133332,26.5290012 98.3275999,26.5290012 C99.3650074,26.5290012 100.335789,26.7496026 101.064831,27.2782799 L101.064831,29.7705297 L100.953481,29.7705297 C100.312956,29.2856049 99.5629838,28.9984502 98.7025914,28.9984502 C97.245458,28.9984502 96.1414346,29.9921016 96.1414346,31.6675284 C96.1414346,33.3429553 97.245458,34.3138263 98.7025914,34.3138263 C99.5629736,34.3138263 100.312956,34.0266716 100.953491,33.5408274 L101.064841,33.5408274 L101.064841,36.0330772 C100.335799,36.5627045 99.3650074,36.7832958 98.3276101,36.7832958 C95.4133332,36.7832958 93.1824234,34.8216847 93.1824234,31.6676714" id="path3382"></path>
                <polyline id="path3386" points="105.810292 32.1086496 105.810292 36.5624798 102.896966 36.5624798 102.896966 22.7797676 105.810292 22.7797676 105.810292 30.6300632 108.747401 26.7486526 112.058561 26.7486526 112.058561 26.8589482 108.526593 31.3137285 112.058551 36.452174 112.058551 36.5624798 108.724559 36.5624798 105.810292 32.1086496"></polyline>
                <path d="M118.593294,33.4750301 L118.593294,32.6373269 C118.152638,32.3958145 117.577779,32.3073697 116.981978,32.3073697 C116.033078,32.3073697 115.45917,32.6591878 115.45917,33.4531691 C115.45917,34.2699512 116.033078,34.6227296 116.89251,34.6227296 C117.71102,34.6227296 118.328712,34.2033877 118.593294,33.4750301 Z M118.681812,35.5925996 C118.041216,36.3646996 117.091416,36.7393389 116.07679,36.7393389 C114.155207,36.7393389 112.588533,35.5716887 112.588533,33.4969115 C112.588533,31.5790223 114.155105,30.300106 116.408898,30.300106 C117.115036,30.300106 117.842238,30.4104118 118.593161,30.6300632 L118.593161,30.4551041 C118.593161,29.3958495 117.997351,28.9337255 116.429757,28.9337255 C115.437043,28.9337255 114.486241,29.2189903 113.669642,29.6830042 L113.559253,29.6830042 L113.559253,27.3448434 C114.310177,26.9045906 115.63503,26.5290012 116.937029,26.5290012 C119.896961,26.5290012 121.508318,27.940074 121.508318,30.4104118 L121.508318,36.5624798 L118.681618,36.5624798 L118.681618,35.5925996 L118.681812,35.5925996 Z" id="path3390"></path>
                <path d="M126.409096,28.3365846 C126.938271,27.2554587 127.712047,26.6383468 128.794199,26.6383468 C129.191072,26.6383468 129.587966,26.7267814 129.741187,26.8152161 L129.741187,29.5937012 L129.63178,29.5937012 C129.300592,29.4605946 128.90376,29.3731509 128.351713,29.3731509 C127.446596,29.3731509 126.740458,29.9028191 126.496796,30.9163905 L126.496796,36.5626433 L123.583388,36.5626433 L123.583388,26.748816 L126.409168,26.748816 L126.409168,28.3367991" id="path3394"></path>
                <path d="M137.469432,33.2325677 L137.469432,30.0785647 C136.984052,29.3730283 136.344458,29.0649422 135.614465,29.0649422 C134.335318,29.0649422 133.473965,29.9920403 133.473965,31.6674467 C133.473965,33.3428735 134.335318,34.2471402 135.614465,34.2471402 C136.344458,34.2471402 136.984042,33.9381041 137.469432,33.2325677 L137.469432,33.2325677 Z M137.556989,35.5488675 C136.939297,36.3429101 135.967565,36.7830915 134.643684,36.7830915 C132.12629,36.7830915 130.514964,34.4905527 130.514964,31.6675284 C130.514964,28.8445042 132.12629,26.5290829 134.643673,26.5290829 C135.923781,26.5290829 136.85079,26.9265639 137.469432,27.6540021 L137.469432,22.7808504 L140.383699,22.7808504 L140.383699,36.5625411 L137.556999,36.5625411 L137.556999,35.5489697 L137.556989,35.5488675 Z" id="path3398"></path>
                <polyline id="path3402" points="0 41.0638423 8.52200154 41.0638423 8.52200154 42.7392691 1.92064259 42.7392691 1.92064259 46.9506267 7.9033689 46.9506267 7.9033689 48.583251 1.92064259 48.583251 1.92064259 53.1702083 8.52200154 53.1702083 8.52200154 54.8456351 0 54.8456351 0 41.0638423"></polyline>
                <path d="M15.5640271,44.944313 C17.7492619,44.944313 18.9636947,46.3782071 18.9636947,48.7363491 L18.9636947,54.8456249 L17.1315802,54.8456249 L17.1315802,48.7809496 C17.1315802,47.5238431 16.4910865,46.6195764 15.1005894,46.6195764 C13.9528337,46.6195764 12.9810502,47.347934 12.6498626,48.3833664 L12.6498626,54.8454206 L10.8177481,54.8454206 L10.8177481,45.142839 L12.6498626,45.142839 L12.6498626,46.5538914 C13.2237916,45.6496247 14.1955751,44.9440679 15.5641907,44.9440679" id="path3406"></path>
                <path d="M23.8880727,45.1430535 L26.3826136,45.1430535 L26.3826136,46.7091143 L23.8880727,46.7091143 L23.8880727,51.9350343 C23.8880727,53.037071 24.4619812,53.4126707 25.4993888,53.4126707 C25.7857909,53.4126707 26.095097,53.3689488 26.3159569,53.2805039 L26.3825216,53.2805039 L26.3825216,54.8456249 C26.1178987,54.955849 25.7419256,55.0443143 25.2346636,55.0443143 C22.959909,55.0443143 22.055815,54.006941 22.055815,52.111781 L22.055815,46.7090633 L20.3778933,46.7090633 L20.3778933,45.1430433 L22.055815,45.1430433 L22.055815,42.5642692 L23.8879296,42.5642692 L23.8879296,45.1429412" id="path3410"></path>
                <path d="M29.4510732,49.045375 L34.2859825,49.045375 C34.2203074,47.612431 33.5131569,46.5103841 32.0122504,46.5103841 C30.6217329,46.5103841 29.7156654,47.5468175 29.4510732,49.045375 L29.4510732,49.045375 Z M32.3434482,55.0443654 C29.4948669,55.0443654 27.5523223,53.1473871 27.5523223,50.1046297 C27.5523223,47.0609325 29.3625554,44.9443232 31.9903484,44.9443232 C34.6619351,44.9443232 36.0524322,46.8631523 36.0524322,49.7071691 L36.0524322,50.5458326 L29.3844471,50.5458326 C29.5833642,52.5084142 30.8425314,53.4564028 32.5861487,53.4564028 C33.6683621,53.4564028 34.440247,53.2139404 35.3016006,52.5740174 L35.3682675,52.5740174 L35.3682675,54.1847808 C34.5735809,54.8018928 33.5352327,55.0443552 32.3436118,55.0443552 L32.3434482,55.0443654 Z" id="path3414"></path>
                <path d="M40.0479,46.6425508 C40.4676361,45.6060969 41.395585,44.9890054 42.4539436,44.9890054 C42.8745999,44.9890054 43.2496016,45.0546086 43.4037843,45.1430535 L43.4037843,46.9506267 L43.3381398,46.9506267 C43.0725967,46.81941 42.6309791,46.7528567 42.1893616,46.7528567 C41.1967191,46.7528567 40.357247,47.4136905 40.0479409,48.5166977 L40.0479409,54.8456453 L38.2158264,54.8456453 L38.2158264,45.1430637 L40.0479409,45.1430637 L40.0479409,46.6425815" id="path3418"></path>
                <path d="M49.3198845,53.3898392 C51.1301176,53.3898392 52.190378,51.9569054 52.190378,49.9933841 C52.190378,48.0536237 51.1301278,46.5988085 49.3198845,46.5988085 C48.3262604,46.5988085 47.3992521,47.1940596 46.913841,48.1411083 L46.913841,51.8694208 C47.3992521,52.81649 48.3262604,53.3898495 49.3198845,53.3898495 L49.3198845,53.3898392 Z M49.629211,44.944313 C52.5206351,44.944313 54.0662862,47.3043449 54.0662862,49.9933739 C54.0662862,52.6852631 52.5205737,55.0443552 49.6291497,55.0443552 C48.4366085,55.0443552 47.421062,54.4272432 46.9138001,53.7644888 L46.9138001,58.5729975 L45.0807652,58.5729975 L45.0807652,45.1430535 L46.9138001,45.1430535 L46.9138001,46.2450903 C47.421062,45.561425 48.4366085,44.944313 49.6291497,44.944313 L49.629211,44.944313 Z" id="path3422"></path>
                <path d="M58.0626948,46.6425508 C58.4814697,45.6060969 59.4094289,44.9890054 60.4687383,44.9890054 C60.8884539,44.9890054 61.2634454,45.0546086 61.4176179,45.1430535 L61.4176179,46.9506267 L61.3519734,46.9506267 C61.087371,46.81941 60.6457637,46.7528567 60.2041462,46.7528567 C59.2104811,46.7528567 58.3719293,47.4136905 58.0626232,48.5166977 L58.0626232,54.8456453 L56.2305086,54.8456453 L56.2305086,45.1430637 L58.0626232,45.1430637 L58.0626232,46.6425815" id="path3426"></path>
                <path d="M64.0673128,41.2178904 C64.7078474,41.2178904 65.2370216,41.7246965 65.2370216,42.3646297 C65.2370216,43.0045629 64.7078474,43.511369 64.0673128,43.511369 C63.4496209,43.511369 62.8966532,43.0045629 62.8966532,42.3646297 C62.8966532,41.7246965 63.4496209,41.2178904 64.0673128,41.2178904" id="path3430"></path>
                <polygon id="path3432" points="63.1621963 54.8456351 64.995272 54.8456351 64.995272 45.1430535 63.1621349 45.1430535 63.1621349 54.8456351"></polygon>
                <path d="M71.5300151,49.1784918 C72.9205326,49.6187447 74.4652226,50.1921143 74.4652226,52.0443901 C74.4652226,54.0297826 72.8320148,55.0443449 70.7352978,55.0443449 C69.4543105,55.0443449 68.1741411,54.7353293 67.445099,54.1619392 L67.445099,52.4199897 L67.5336474,52.4199897 C68.351238,53.1692582 69.5647404,53.5001655 70.7124961,53.5001655 C71.7499241,53.5001655 72.6779446,53.1026845 72.6779446,52.2649915 C72.6779446,51.405407 71.9060597,51.2066767 70.3814108,50.6998705 C69.0127952,50.2586676 67.4899867,49.7509115 67.4899867,47.9214569 C67.4899867,46.04636 69.0346767,44.944313 71.0001252,44.944313 C72.1479422,44.944313 73.163458,45.1867856 73.980067,45.7382841 L73.980067,47.5030752 L73.9143714,47.5030752 C73.1206051,46.8631523 72.1917154,46.4875629 71.0439086,46.4875629 C69.8961018,46.4875629 69.255557,46.9953191 69.255557,47.6789843 C69.255557,48.4510843 69.9617667,48.6707357 71.5302503,49.1785021" id="path3436"></path>
                <path d="M77.9543589,49.045375 L82.7883275,49.045375 C82.7226422,47.612431 82.0164427,46.5103841 80.514575,46.5103841 C79.1240575,46.5103841 78.2189409,47.5468175 77.9543589,49.045375 L77.9543589,49.045375 Z M80.845783,55.0443654 C77.9981219,55.0443654 76.0556081,53.1473871 76.0556081,50.1046297 C76.0556081,47.0609325 77.8658412,44.9443232 80.4926833,44.9443232 C83.1651902,44.9443232 84.554767,46.8631523 84.554767,49.7071691 L84.554767,50.5458326 L77.8876613,50.5458326 C78.0865375,52.5084142 79.3447231,53.4564028 81.0883915,53.4564028 C82.1714229,53.4564028 82.9433078,53.2139404 83.8037411,52.5740174 L83.8703058,52.5740174 L83.8703058,54.1847808 C83.0765395,54.8018928 82.0381912,55.0443552 80.8456501,55.0443552 L80.845783,55.0443654 Z" id="path3440"></path>
            </g>
        </g>
    </g>
</svg>

<svg width="141" height="59" viewBox="0 0 141 59" xmlns="http://www.w3.org/2000/svg"><g fill-rule="nonzero" fill="#3A3A62"><path d="M45.036 10.785h-42.033v-7.785h42.033v7.785zm3.003-10.785h-48.039v13.783h48.039v-13.783z"/><path d="M3.003 36.562h-3.003v-13.783h3.003v5.447h5.365v-5.447h3.003v13.783h-3.003v-5.712h-5.365v5.712"/><path d="M15.918 30.52h3.577c-.067-1.014-.485-1.72-1.656-1.72-.883 0-1.656.376-1.921 1.72zm2.274 6.263c-3.047 0-5.121-1.919-5.121-5.071 0-3.067 2.031-5.183 4.725-5.183 2.936 0 4.393 1.963 4.393 4.896v1.103h-6.27c.354 1.52 1.546 1.917 2.738 1.917 1.037 0 1.787-.22 2.714-.794h.111v2.272c-.795.574-1.922.861-3.29.861z"/><path d="M30.025 30.785l-1.546 5.777h-2.627l-3.003-9.704v-.11h2.87l1.633 5.8 1.546-5.8h2.34l1.568 5.8 1.656-5.8h2.76v.11l-3.003 9.704h-2.628l-1.567-5.777"/><path d="M42.101 36.783c-2.384 0-3.356-.948-3.356-3.175v-10.827h2.914v10.629c0 .684.265.926.838.926.199 0 .486-.066.662-.132h.045v2.404c-.243.087-.662.176-1.104.176"/><path d="M46.87 30.52h3.577c-.067-1.014-.485-1.72-1.656-1.72-.882 0-1.656.376-1.921 1.72zm2.274 6.263c-3.047 0-5.121-1.919-5.121-5.071 0-3.067 2.031-5.183 4.725-5.183 2.936 0 4.393 1.963 4.393 4.896v1.103h-6.27c.353 1.52 1.546 1.917 2.737 1.917 1.038 0 1.788-.22 2.716-.794h.11v2.272c-.795.574-1.921.861-3.29.861z"/><path d="M65.106 26.749h2.163v2.337h-2.163v3.992c0 .861.331 1.258 1.214 1.258.243 0 .552-.023.883-.133h.066v2.293c-.375.133-.949.286-1.787.286-2.363 0-3.29-1.08-3.29-3.572v-4.124h-3.731v3.992c0 .861.331 1.258 1.214 1.258.244 0 .553-.023.884-.133h.066v2.293c-.375.133-.95.286-1.787.286-2.363 0-3.29-1.08-3.29-3.572v-4.124h-1.502v-2.337h1.502v-2.69h2.914v2.69h3.731v-2.69h2.914v2.69"/><path d="M77.088 29.55c1.525 0 2.252-.86 2.252-2.095 0-1.28-.727-2.139-2.252-2.139h-1.899v4.234h1.899zm5.299-2.095c0 3-2.009 4.631-5.057 4.631h-2.141v4.477h-3.001v-13.783h5.142c3.048 0 5.057 1.632 5.057 4.675z"/><path d="M88.789 33.475v-.838c-.442-.242-1.015-.33-1.611-.33-.949 0-1.523.352-1.523 1.146 0 .817.574 1.17 1.434 1.17.817 0 1.435-.419 1.7-1.148zm.089 2.118c-.641.772-1.588 1.147-2.606 1.147-1.92 0-3.488-1.168-3.488-3.242 0-1.918 1.568-3.197 3.819-3.197.706 0 1.436.11 2.186.33v-.175c0-1.059-.596-1.521-2.162-1.521-.995 0-1.943.285-2.761.749h-.11v-2.338c.75-.44 2.076-.816 3.377-.816 2.959 0 4.57 1.411 4.57 3.881v6.152h-2.826v-.97z"/><path d="M93.182 31.667c0-3.154 2.231-5.138 5.145-5.138 1.037 0 2.008.221 2.737.749v2.492h-.111c-.641-.485-1.39-.772-2.251-.772-1.457 0-2.561.994-2.561 2.669s1.104 2.646 2.561 2.646c.86 0 1.61-.287 2.251-.773h.111v2.492c-.729.53-1.7.75-2.737.75-2.914 0-5.145-1.962-5.145-5.116"/><path d="M105.81 32.109v4.454h-2.913v-13.783h2.913v7.85l2.937-3.881h3.311v.11l-3.532 4.455 3.532 5.138v.11h-3.334l-2.914-4.454"/><path d="M118.593 33.475v-.838c-.441-.242-1.016-.33-1.611-.33-.949 0-1.523.352-1.523 1.146 0 .817.574 1.17 1.433 1.17.819 0 1.436-.419 1.701-1.148zm.089 2.118c-.641.772-1.59 1.147-2.605 1.147-1.922 0-3.488-1.168-3.488-3.242 0-1.918 1.567-3.197 3.82-3.197.706 0 1.433.11 2.184.33v-.175c0-1.059-.596-1.521-2.163-1.521-.993 0-1.944.285-2.76.749h-.11v-2.338c.751-.44 2.076-.816 3.378-.816 2.96 0 4.571 1.411 4.571 3.881v6.152h-2.827v-.97z"/><path d="M126.409 28.337c.529-1.081 1.303-1.698 2.385-1.698.397 0 .794.088.947.177v2.778h-.109c-.331-.133-.728-.221-1.28-.221-.905 0-1.611.53-1.855 1.543v5.646h-2.913v-9.814h2.826v1.588"/><path d="M137.469 33.233v-3.154c-.485-.706-1.125-1.014-1.855-1.014-1.279 0-2.141.927-2.141 2.603 0 1.675.861 2.58 2.141 2.58.73 0 1.37-.309 1.855-1.015zm.088 2.316c-.618.794-1.589 1.234-2.913 1.234-2.517 0-4.129-2.293-4.129-5.116 0-2.823 1.611-5.138 4.129-5.138 1.28 0 2.207.397 2.826 1.125v-4.873h2.914v13.782h-2.827v-1.014z"/><path d="M0 41.064h8.522v1.675h-6.601v4.211h5.983v1.633h-5.983v4.587h6.601v1.675h-8.522v-13.782"/><path d="M15.564 44.944c2.185 0 3.4 1.434 3.4 3.792v6.109h-1.832v-6.065c0-1.257-.64-2.161-2.031-2.161-1.148 0-2.12.728-2.451 1.764v6.462h-1.832v-9.703h1.832v1.411c.574-.904 1.546-1.61 2.914-1.61"/><path d="M23.888 45.143h2.495v1.566h-2.495v5.226c0 1.102.574 1.478 1.611 1.478.286 0 .596-.044.817-.132h.067v1.565c-.265.11-.641.199-1.148.199-2.275 0-3.179-1.037-3.179-2.933v-5.403h-1.678v-1.566h1.678v-2.579h1.832v2.579"/><path d="M29.451 49.045h4.835c-.066-1.433-.773-2.535-2.274-2.535-1.391 0-2.297 1.036-2.561 2.535zm2.892 5.999c-2.849 0-4.791-1.897-4.791-4.94 0-3.044 1.81-5.16 4.438-5.16 2.672 0 4.062 1.919 4.062 4.763v.839h-6.668c.199 1.963 1.458 2.911 3.202 2.911 1.082 0 1.854-.242 2.715-.882h.067v1.611c-.795.617-1.833.86-3.025.86z"/><path d="M40.048 46.643c.42-1.036 1.348-1.654 2.406-1.654.421 0 .796.066.95.154v1.808h-.066c-.266-.131-.707-.198-1.149-.198-.993 0-1.832.661-2.141 1.764v6.329h-1.832v-9.703h1.832v1.5"/><path d="M49.32 53.39c1.81 0 2.87-1.433 2.87-3.396 0-1.94-1.06-3.395-2.87-3.395-.994 0-1.921.595-2.406 1.542v3.728c.485.947 1.412 1.52 2.406 1.52zm.309-8.446c2.891 0 4.437 2.36 4.437 5.049 0 2.692-1.546 5.051-4.437 5.051-1.193 0-2.208-.617-2.715-1.28v4.809h-1.833v-13.43h1.833v1.102c.507-.684 1.523-1.301 2.715-1.301z"/><path d="M58.063 46.643c.419-1.036 1.347-1.654 2.406-1.654.42 0 .795.066.949.154v1.808h-.066c-.265-.131-.706-.198-1.148-.198-.994 0-1.832.661-2.142 1.764v6.329h-1.832v-9.703h1.832v1.5"/><path d="M64.067 41.218c.641 0 1.17.507 1.17 1.147s-.529 1.147-1.17 1.147c-.618 0-1.171-.507-1.171-1.147s.553-1.147 1.171-1.147"/><path d="M63.162 54.846h1.833v-9.703h-1.833v9.703z"/><path d="M71.53 49.178c1.391.44 2.935 1.014 2.935 2.866 0 1.985-1.633 3-3.73 3-1.281 0-2.561-.309-3.29-.882v-1.742h.089c.818.749 2.031 1.08 3.179 1.08 1.037 0 1.965-.397 1.965-1.235 0-.86-.772-1.058-2.297-1.565-1.369-.441-2.891-.949-2.891-2.778 0-1.875 1.545-2.977 3.51-2.977 1.148 0 2.163.242 2.98.794v1.765h-.066c-.794-.64-1.723-1.016-2.87-1.016-1.148 0-1.788.508-1.788 1.191 0 .772.706.992 2.275 1.5"/><path d="M77.954 49.045h4.834c-.066-1.433-.772-2.535-2.274-2.535-1.391 0-2.296 1.036-2.56 2.535zm2.891 5.999c-2.848 0-4.79-1.897-4.79-4.94 0-3.044 1.81-5.16 4.437-5.16 2.673 0 4.062 1.919 4.062 4.763v.839h-6.667c.199 1.963 1.457 2.911 3.201 2.911 1.083 0 1.855-.242 2.715-.882h.067v1.611c-.794.617-1.832.86-3.025.86z"/></g></svg>
